src/assets/media/img/Logo.svg

<svg width="56" height="56" viewBox="0 0 56 56" fill="none" xmlns="http://www.w3.org/2000/svg">
<rect x="0.5" y="0.5" width="55" height="55" rx="7.5" fill="white" stroke="#E8E8E8"/>
<path fill-rule="evenodd" clip-rule="evenodd" d="M19.9974 29.3359C19.2641 29.3359 18.6641 29.9359 18.6641 30.6693C18.6641 31.4026 19.2641 32.0026 19.9974 32.0026C20.7307 32.0026 21.3307 31.4026 21.3307 30.6693C21.3307 29.9359 20.7307 29.3359 19.9974 29.3359ZM19.9974 34.6719C19.2641 34.6719 18.6641 35.2719 18.6641 36.0052C18.6641 36.7385 19.2641 37.3385 19.9974 37.3385C20.7307 37.3385 21.3307 36.7385 21.3307 36.0052C21.3307 35.2719 20.7307 34.6719 19.9974 34.6719ZM19.9974 24C19.2641 24 18.6641 24.6 18.6641 25.3333C18.6641 26.0667 19.2641 26.6667 19.9974 26.6667C20.7307 26.6667 21.3307 26.0667 21.3307 25.3333C21.3307 24.6 20.7307 24 19.9974 24ZM15.9987 24.6719C15.6254 24.6719 15.332 24.9652 15.332 25.3385C15.332 25.7119 15.6254 26.0052 15.9987 26.0052C16.372 26.0052 16.6654 25.7119 16.6654 25.3385C16.6654 24.9652 16.372 24.6719 15.9987 24.6719ZM19.9974 18.6719C19.2641 18.6719 18.6641 19.2719 18.6641 20.0052C18.6641 20.7385 19.2641 21.3385 19.9974 21.3385C20.7307 21.3385 21.3307 20.7385 21.3307 20.0052C21.3307 19.2719 20.7307 18.6719 19.9974 18.6719ZM39.9987 26.0052C40.372 26.0052 40.6654 25.7119 40.6654 25.3385C40.6654 24.9652 40.372 24.6719 39.9987 24.6719C39.6254 24.6719 39.332 24.9652 39.332 25.3385C39.332 25.7119 39.6254 26.0052 39.9987 26.0052ZM30.6654 21.3385C31.3987 21.3385 31.9987 20.7385 31.9987 20.0052C31.9987 19.2719 31.3987 18.6719 30.6654 18.6719C29.932 18.6719 29.332 19.2719 29.332 20.0052C29.332 20.7385 29.932 21.3385 30.6654 21.3385ZM30.6667 16.6693C31.04 16.6693 31.3333 16.3759 31.3333 16.0026C31.3333 15.6293 31.04 15.3359 30.6667 15.3359C30.2933 15.3359 30 15.6293 30 16.0026C30 16.3759 30.2933 16.6693 30.6667 16.6693ZM15.9987 30C15.6254 30 15.332 30.2933 15.332 30.6667C15.332 31.04 15.6254 31.3333 15.9987 31.3333C16.372 31.3333 16.6654 31.04 16.6654 30.6667C16.6654 30.2933 16.372 30 15.9987 30ZM25.3307 39.3359C24.9574 39.3359 24.6641 39.6293 24.6641 40.0026C24.6641 40.3759 24.9574 40.6693 25.3307 40.6693C25.7041 40.6693 25.9974 40.3759 25.9974 40.0026C25.9974 39.6293 25.7041 39.3359 25.3307 39.3359ZM25.3307 16.6693C25.7041 16.6693 25.9974 16.3759 25.9974 16.0026C25.9974 15.6293 25.7041 15.3359 25.3307 15.3359C24.9574 15.3359 24.6641 15.6293 24.6641 16.0026C24.6641 16.3759 24.9574 16.6693 25.3307 16.6693ZM25.3333 21.3385C26.0667 21.3385 26.6667 20.7385 26.6667 20.0052C26.6667 19.2719 26.0667 18.6719 25.3333 18.6719C24.6 18.6719 24 19.2719 24 20.0052C24 20.7385 24.6 21.3385 25.3333 21.3385ZM25.332 28.6719C24.2254 28.6719 23.332 29.5652 23.332 30.6719C23.332 31.7785 24.2254 32.6719 25.332 32.6719C26.4387 32.6719 27.332 31.7785 27.332 30.6719C27.332 29.5652 26.4387 28.6719 25.332 28.6719ZM35.9974 29.3359C35.2641 29.3359 34.6641 29.9359 34.6641 30.6693C34.6641 31.4026 35.2641 32.0026 35.9974 32.0026C36.7307 32.0026 37.3307 31.4026 37.3307 30.6693C37.3307 29.9359 36.7307 29.3359 35.9974 29.3359ZM35.9974 34.6719C35.2641 34.6719 34.6641 35.2719 34.6641 36.0052C34.6641 36.7385 35.2641 37.3385 35.9974 37.3385C36.7307 37.3385 37.3307 36.7385 37.3307 36.0052C37.3307 35.2719 36.7307 34.6719 35.9974 34.6719ZM35.9974 24C35.2641 24 34.6641 24.6 34.6641 25.3333C34.6641 26.0667 35.2641 26.6667 35.9974 26.6667C36.7307 26.6667 37.3307 26.0667 37.3307 25.3333C37.3307 24.6 36.7307 24 35.9974 24ZM35.9974 18.6719C35.2641 18.6719 34.6641 19.2719 34.6641 20.0052C34.6641 20.7385 35.2641 21.3385 35.9974 21.3385C36.7307 21.3385 37.3307 20.7385 37.3307 20.0052C37.3307 19.2719 36.7307 18.6719 35.9974 18.6719ZM39.9987 30C39.6254 30 39.332 30.2933 39.332 30.6667C39.332 31.04 39.6254 31.3333 39.9987 31.3333C40.372 31.3333 40.6654 31.04 40.6654 30.6667C40.6654 30.2933 40.372 30 39.9987 30ZM30.6654 34.6719C29.932 34.6719 29.332 35.2719 29.332 36.0052C29.332 36.7385 29.932 37.3385 30.6654 37.3385C31.3987 37.3385 31.9987 36.7385 31.9987 36.0052C31.9987 35.2719 31.3987 34.6719 30.6654 34.6719ZM30.6667 39.3359C30.2933 39.3359 30 39.6293 30 40.0026C30 40.3759 30.2933 40.6693 30.6667 40.6693C31.04 40.6693 31.3333 40.3759 31.3333 40.0026C31.3333 39.6293 31.04 39.3359 30.6667 39.3359ZM25.332 23.3359C24.2254 23.3359 23.332 24.2293 23.332 25.3359C23.332 26.4426 24.2254 27.3359 25.332 27.3359C26.4387 27.3359 27.332 26.4426 27.332 25.3359C27.332 24.2293 26.4387 23.3359 25.332 23.3359ZM25.3333 34.6719C24.6 34.6719 24 35.2719 24 36.0052C24 36.7385 24.6 37.3385 25.3333 37.3385C26.0667 37.3385 26.6667 36.7385 26.6667 36.0052C26.6667 35.2719 26.0667 34.6719 25.3333 34.6719ZM30.6641 28.6719C29.5574 28.6719 28.6641 29.5652 28.6641 30.6719C28.6641 31.7785 29.5574 32.6719 30.6641 32.6719C31.7707 32.6719 32.6641 31.7785 32.6641 30.6719C32.6641 29.5652 31.7707 28.6719 30.6641 28.6719ZM30.6641 23.3359C29.5574 23.3359 28.6641 24.2293 28.6641 25.3359C28.6641 26.4426 29.5574 27.3359 30.6641 27.3359C31.7707 27.3359 32.6641 26.4426 32.6641 25.3359C32.6641 24.2293 31.7707 23.3359 30.6641 23.3359Z" fill="#FFCB34"/>
</svg>

<svg xmlns="http://www.w3.org/2000/svg" fill="none" width="56" height="56" viewBox="0 0 56 56"><rect fill="#fff" width="55" height="55" x=".5" y=".5" stroke="#E8E8E8" rx="7.5"/><path d="M19.997 29.336c-.733 0-1.333.6-1.333 1.333 0 .734.6 1.334 1.333 1.334.734 0 1.334-.6 1.334-1.334 0-.733-.6-1.333-1.334-1.333Zm0 5.336c-.733 0-1.333.6-1.333 1.333s.6 1.334 1.333 1.334c.734-.003 1.334-.603 1.334-1.336s-.6-1.333-1.334-1.333Zm0-10.672c-.733 0-1.333.6-1.333 1.333 0 .734.6 1.334 1.333 1.334.734 0 1.334-.6 1.334-1.334 0-.733-.6-1.333-1.334-1.333ZM16 24.672a.66.66 0 0 0-.667.666.66.66 0 0 0 .667.667.66.66 0 0 0 .666-.666.66.66 0 0 0-.666-.667Zm3.998-6c-.733 0-1.333.6-1.333 1.333s.6 1.334 1.333 1.334c.734 0 1.334-.6 1.334-1.334 0-.733-.6-1.333-1.334-1.333ZM40 26.005a.66.66 0 0 0 .666-.666.66.66 0 0 0-.666-.667.66.66 0 0 0-.667.666.66.66 0 0 0 .667.667Zm-9.334-4.666c.734 0 1.334-.6 1.334-1.334 0-.733-.6-1.333-1.334-1.333-.733 0-1.333.6-1.333 1.333s.6 1.334 1.333 1.334Zm.002-4.67a.66.66 0 0 0 .666-.666.66.66 0 0 0-.666-.667.66.66 0 0 0-.667.667.66.66 0 0 0 .668.666ZM15.999 30a.66.66 0 0 0-.668.667.66.66 0 0 0 .667.666.66.66 0 0 0 .666-.666A.66.66 0 0 0 16 30Zm9.33 9.336a.66.66 0 0 0-.666.667.66.66 0 0 0 .667.666.66.66 0 0 0 .666-.666.66.66 0 0 0-.666-.667Zm0-22.667a.66.66 0 0 0 .667-.666.66.66 0 0 0-.666-.667.66.66 0 0 0-.667.667.66.66 0 0 0 .667.666Zm.003 4.67c.734 0 1.334-.6 1.334-1.334 0-.733-.6-1.333-1.334-1.333-.733 0-1.333.6-1.333 1.333s.6 1.334 1.332 1.334Zm0 7.333c-1.108 0-2 .893-2 2s.892 2 2 2c1.106 0 2-.893 2-2s-.894-2-2-2Zm10.664.664c-.733 0-1.333.6-1.333 1.333 0 .734.6 1.334 1.333 1.334.734 0 1.334-.6 1.334-1.334 0-.733-.6-1.333-1.334-1.333Zm0 5.336c-.733 0-1.333.6-1.333 1.333s.6 1.334 1.333 1.334c.734-.003 1.334-.603 1.334-1.336s-.6-1.333-1.334-1.333Zm0-10.672c-.733 0-1.333.6-1.333 1.333 0 .734.6 1.334 1.333 1.334.734 0 1.334-.6 1.334-1.334 0-.733-.6-1.333-1.334-1.333Zm0-5.328c-.733 0-1.333.6-1.333 1.333s.6 1.334 1.333 1.334c.734 0 1.334-.6 1.334-1.334 0-.733-.6-1.333-1.334-1.333ZM40 30a.66.66 0 0 0-.667.667.66.66 0 0 0 .667.666.66.66 0 0 0 .666-.666A.66.66 0 0 0 40 30Zm-9.334 4.672c-.733 0-1.333.6-1.333 1.333s.6 1.334 1.333 1.334C31.4 37.336 32 36.736 32 36.003s-.6-1.333-1.334-1.333Zm.002 4.664a.66.66 0 0 0-.667.667.66.66 0 0 0 .668.666.66.66 0 0 0 .666-.666.66.66 0 0 0-.666-.667Zm-5.335-16c-1.107 0-2 .893-2 2s.893 2 2 2 2-.893 2-2-.893-2-2-2Zm.001 11.336c-.733 0-1.333.6-1.333 1.333s.6 1.334 1.333 1.334c.734-.003 1.334-.603 1.334-1.336s-.6-1.333-1.334-1.333Zm5.331-6c-1.107 0-2 .893-2 2s.893 2 2 2 2-.893 2-2-.893-2-2-2Zm0-5.336c-1.107 0-2 .893-2 2s.893 2 2 2 2-.893 2-2-.893-2-2-2Z" fill="#FFCB34" fill-rule="evenodd" clip-rule="evenodd"/></svg>
